X:1
T:Title
%%score { 1 | ( 2 3 ) }
L:1/8
M:9/8
K:Ab
V:1 treble nm="Grand Piano"
V:2 bass 
V:3 bass 
V:1
 z3 z3[Q:1/4=100] [CE]=DE | [DF]3 E2 A [B,G]AB | [CA]6 [CA]AB | [Ec]3 c2 B [=DA]Bc | B6 [CE]=DE | %5
 [DF]3 E2 A [Ec]de | [Fd]6 [Fd]2 d | c3 A2 c dcB |[M:3/4] [DB]3 A3 |[M:3/8] E2 E | %10
[M:9/8] [Gd]3 [DGB]2 [DGB] [DGB][CA][EGB] | c3 A3 E2 E | [Gd]3 [DGB]2 [DGB] [DGB][CA][EGB] | %13
 [EAc]6 [A,EA]2 [A,EG] |[M:3/4] [A,DF][A,DF] [DFA] [Fd]3 |[M:3/8] [FA]2 [DF] | %16
[M:9/8] [CE][CE]A c3 c2 c | %17
[M:23/16] e/-e/-e/-e/-e/-e-<ec/-c/-c-<cEEAc[Q:1/4=97][Q:1/4=94][Q:1/4=91][Q:1/4=88][Q:1/4=84][Q:1/4=81][Q:1/4=78] | %18
[M:3/4] [GB]3 [CEA]3 |] %19
V:2
 z3 z3 z _C=C | z3 C2 C z CD | [A,,A,]6 z CD | z3 E2 E z =DD | [E,,E,G,D]6 z _C=C | %5
 z3 C2 C z[K:treble] F_G | [D,A,]6 z2 F | E3 C2 E FED |[M:3/4] z2 z C3 |[M:3/8] [E,G,]2 [E,G,] | %10
[M:9/8] [E,B,]3 E,2 E, E,E,E, | [A,EA]3 [A,CE]3[K:bass] [A,C]2 [A,C] | [E,B,]3 E,2 E, E,E,E, | %13
 A,6 C,2 C, |[M:3/4] D,D, D, [D,A,]3 |[M:3/8] [D,D]2 [D,A,] | %16
[M:9/8] [A,,A,][A,,A,][K:treble][A,CE] [A,EA]3 [A,EA]2 [A,EA] | %17
[M:23/16] [A,CA]/-[A,CA]/-[A,CA]/-[A,CA]/-[A,CA]/-[A,CA]-<[A,CA][A,EA]/-[A,EA]/-[A,EA]-<[A,EA][A,C][A,C][A,CE][A,EA] | %18
[M:3/4][K:bass] [E,D]3 [A,,A,]3 |] %19
V:3
 z3 z3 [A,,E,]3 | [A,,A,]6 [E,,E,]3 | z3 z3 [A,,A,]3 | [A,,A,]6 [B,,F,]3 | z3 z3 [A,,E,]3 | %5
 [A,,A,]6 [A,,A,]3[K:treble] | z3 z3 [D,A,]3 | [E,A,]6 [E,,E,G,]3 |[M:3/4] [A,,A,]6 |[M:3/8] x3 | %10
[M:9/8] x9 | x6[K:bass] x3 | x9 | x9 |[M:3/4] x6 |[M:3/8] x3 |[M:9/8] x2[K:treble] x7 | %17
[M:23/16] x23/2 |[M:3/4][K:bass] x6 |] %19

